theme/dist/icons/delivery-green.svg

<?xml version="1.0" encoding="UTF-8"?>
<svg enable-background="new 0 0 512 512" version="1.1" viewBox="0 0 512 512" xml:space="preserve" xmlns="http://www.w3.org/2000/svg">

		<path d="m386.69 304.4c-35.587 0-64.538 28.951-64.538 64.538s28.951 64.538 64.538 64.538c35.593 0 64.538-28.951 64.538-64.538s-28.951-64.538-64.538-64.538zm0 96.807c-17.796 0-32.269-14.473-32.269-32.269s14.473-32.269 32.269-32.269 32.269 14.473 32.269 32.269c0 17.797-14.473 32.269-32.269 32.269z" fill="#7bb82a"/>

		<path d="m166.18 304.4c-35.587 0-64.538 28.951-64.538 64.538s28.951 64.538 64.538 64.538 64.538-28.951 64.538-64.538-28.951-64.538-64.538-64.538zm0 96.807c-17.796 0-32.269-14.473-32.269-32.269s14.473-32.269 32.269-32.269c17.791 0 32.269 14.473 32.269 32.269 0 17.797-14.473 32.269-32.269 32.269z" fill="#7bb82a"/>

		<path d="m430.15 119.68c-2.743-5.448-8.32-8.885-14.419-8.885h-84.975v32.269h75.025l43.934 87.384 28.838-14.5-48.403-96.268z" fill="#7bb82a"/>

		<rect x="216.2" y="353.34" width="122.08" height="32.269" fill="#7bb82a"/>

		<path d="m117.78 353.34h-55.932c-8.912 0-16.134 7.223-16.134 16.134 0 8.912 7.223 16.134 16.134 16.134h55.933c8.912 0 16.134-7.223 16.134-16.134 0-8.912-7.223-16.134-16.135-16.134z" fill="#7bb82a"/>

		<path d="m508.61 254.71-31.736-40.874c-3.049-3.937-7.755-6.239-12.741-6.239h-117.24v-112.94c0-8.912-7.223-16.134-16.134-16.134h-268.91c-8.912 0-16.134 7.223-16.134 16.134s7.223 16.134 16.134 16.134h252.77v112.94c0 8.912 7.223 16.134 16.134 16.134h125.48l23.497 30.268v83.211h-44.639c-8.912 0-16.134 7.223-16.134 16.134 0 8.912 7.223 16.134 16.134 16.134h60.773c8.912 0 16.134-7.223 16.135-16.134v-104.87c0-3.582-1.194-7.067-3.388-9.896z" fill="#7bb82a"/>

		<path d="m116.71 271.6h-74.219c-8.912 0-16.134 7.223-16.134 16.134 0 8.912 7.223 16.134 16.134 16.134h74.218c8.912 0 16.134-7.223 16.134-16.134 1e-3 -8.911-7.222-16.134-16.133-16.134z" fill="#7bb82a"/>

		<path d="m153.82 208.13h-137.68c-8.911 0-16.134 7.223-16.134 16.135s7.223 16.134 16.134 16.134h137.68c8.912 0 16.134-7.223 16.134-16.134s-7.222-16.135-16.134-16.135z" fill="#7bb82a"/>

		<path d="m180.17 144.67h-137.68c-8.912 0-16.134 7.223-16.134 16.134 0 8.912 7.223 16.134 16.134 16.134h137.68c8.912 0 16.134-7.223 16.134-16.134 1e-3 -8.911-7.222-16.134-16.134-16.134z" fill="#7bb82a"/>

</svg>

<svg viewBox="0 0 512 512" xmlns="http://www.w3.org/2000/svg" xmlns:xlink="http://www.w3.org/1999/xlink" xmlns:serif="http://www.serif.com/" style="fill-rule:evenodd;clip-rule:evenodd;stroke-linejoin:round;stroke-miterlimit:1.41421"><path d="M386.69 304.4C351.103 304.4 322.152 333.351 322.152 368.938 322.152 404.525 351.103 433.476 386.69 433.476 422.283 433.476 451.228 404.525 451.228 368.938 451.228 333.351 422.277 304.4 386.69 304.4zM386.69 401.207C368.894 401.207 354.421 386.734 354.421 368.938 354.421 351.142 368.894 336.669 386.69 336.669 404.486 336.669 418.959 351.142 418.959 368.938 418.959 386.735 404.486 401.207 386.69 401.207z" style="fill:#78aa66;fill-rule:nonzero"/><path d="M166.18 304.4C130.593 304.4 101.642 333.351 101.642 368.938 101.642 404.525 130.593 433.476 166.18 433.476 201.767 433.476 230.718 404.525 230.718 368.938 230.718 333.351 201.767 304.4 166.18 304.4zM166.18 401.207C148.384 401.207 133.911 386.734 133.911 368.938 133.911 351.142 148.384 336.669 166.18 336.669 183.971 336.669 198.449 351.142 198.449 368.938 198.449 386.735 183.976 401.207 166.18 401.207z" style="fill:#78aa66;fill-rule:nonzero"/><path d="M430.15 119.68C427.407 114.232 421.83 110.795 415.731 110.795H330.756V143.064H405.781L449.715 230.448 478.553 215.948 430.15 119.68z" style="fill:#78aa66;fill-rule:nonzero"/><path d="M216.2 353.34h122.08v32.269H216.2z" style="fill:#78aa66"/><path d="M117.78 353.34H61.848C52.936 353.34 45.714 360.563 45.714 369.474 45.714 378.386 52.937 385.608 61.848 385.608H117.781C126.693 385.608 133.915 378.385 133.915 369.474 133.915 360.562 126.692 353.34 117.78 353.34z" style="fill:#78aa66;fill-rule:nonzero"/><path d="M508.61 254.71 476.874 213.836C473.825 209.899 469.119 207.597 464.133 207.597H346.893V94.657C346.893 85.745 339.67 78.523 330.759 78.523H61.849C52.937 78.523 45.715 85.746 45.715 94.657 45.715 103.568 52.938 110.791 61.849 110.791H314.619v112.94C314.619 232.643 321.842 239.865 330.753 239.865H456.233L479.73 270.133V353.344H435.091C426.179 353.344 418.957 360.567 418.957 369.478 418.957 378.39 426.18 385.612 435.091 385.612H495.864C504.776 385.612 511.998 378.389 511.999 369.478V264.608C511.999 261.026 510.805 257.541 508.611 254.712L508.61 254.71z" style="fill:#78aa66;fill-rule:nonzero"/><path d="M116.71 271.6H42.491C33.579 271.6 26.357 278.823 26.357 287.734 26.357 296.646 33.58 303.868 42.491 303.868h74.218C125.621 303.868 132.843 296.645 132.843 287.734 132.844 278.823 125.621 271.6 116.71 271.6z" style="fill:#78aa66;fill-rule:nonzero"/><path d="M153.82 208.13H16.14C7.229 208.13.006 215.353.006 224.265.006 233.177 7.229 240.399 16.14 240.399H153.82C162.732 240.399 169.954 233.176 169.954 224.265 169.954 215.354 162.732 208.13 153.82 208.13z" style="fill:#78aa66;fill-rule:nonzero"/><path d="M180.17 144.67H42.49C33.578 144.67 26.356 151.893 26.356 160.804 26.356 169.716 33.579 176.938 42.49 176.938H180.17C189.082 176.938 196.304 169.715 196.304 160.804 196.305 151.893 189.082 144.67 180.17 144.67z" style="fill:#78aa66;fill-rule:nonzero"/></svg>
